X: 14812
T: Garavogue, The
R: reel
M: 4/4
K: Fmajor
F|DG G2 AFGF|DG G2 dGAc|dgga f2 gf|dcAG FGAF|
DG G2 AFGF|DG G2 dGAc|dg g2 (3agf ga|fdcA G3||
F|DG AFGF|DG G2 dGAc|dgga f2 gf|dcAG FGAF|
G3 D FGAF|DG G2 dGAc|dg g2 (3agf ga|fdcA G3||
f|g2 g2 dgag|bgag gfde|f2 f2 cfag|fdcd fgaf|
g2 ag bgag|(3agf dc BGBc|dg (3gfg afga|fdcA G3||

